X:1
T:Title
%%score { ( 1 3 ) | ( 2 4 ) }
L:1/8
M:6/8
K:F
V:1 treble nm="Grand Piano"
V:3 treble 
V:2 bass 
V:4 bass 
V:1
 z3 z2[Q:1/4=100] c | c3 A3 | F2 G A2 [DFB] | [CFA]2 G F2 E | F3- F2 F | [EG]2 [EG] [EG]2 [EG] | %6
 A2 A A2 A | B2 B B2 G | c2 c c2 c | d3 [Be]3 | [Af]2 [Ac] [Ac]2 [DGB] | [CFA]2 G F2 E | %12
[M:5/8] F-F- F3 |[M:1/8] c |[M:3/4] c4 z2 | c3 A3 | [EG]>[FA] [GB][GB]- [GB]/[FA]/[EG] | %17
[M:5/8] [FA]3 [Ac]2 |[M:1/8] c |[M:3/4] d2 dc c[Be] | [Af]3 [FAc]2 [DGB] | %21
 [CFA][CFA] [CFA][B,EG] [B,EG][B,EG] |[M:5/8] [A,F]-[A,F]- [A,F]3 |] %23
V:2
 z3 z2 [F,A,F] | [F,A,F]3 [F,CF]3 | [A,C]2 [G,CE] [F,CF]2 B,, | C,2 [C,B,C] [C,A,C]2 [C,B,C] | %4
 [F,A,C]3- [F,A,C]2 [F,A,C] | [C,C]2 [C,C] [C,C]2 [C,C] | [F,CF]2 [F,CF] [F,CF]2 [F,CF] | %7
 [G,CE]2 [G,CE] [G,CE]2 [B,CE] | [A,CF]2 [A,CF] [A,CF]2 [A,CF] | [B,F]3[K:bass] [G,C]3 | %10
 [F,C]2 [F,F] [F,F]2 B,, | C,2 [C,B,C] [C,A,C]2 [C,G,C] |[M:5/8] [F,A,C]-[F,A,C]- [F,A,C]3 | %13
[M:1/8] [F,A,F] |[M:3/4] F4 z2 | [F,A,F]3 [F,CF]3 | [C,C]>[C,C] [C,C][C,C]- [C,C]/[C,C]/[C,C] | %17
[M:5/8] [F,C]3[K:treble] [F,F]2 |[M:1/8] [F,A,F] |[M:3/4] [B,F]2 [B,F][A,CF] [A,CF][K:bass][G,C] | %20
 [F,C]3 F,2 B,, | C,C, C,C, C,C, |[M:5/8] F,-F,- F,3 |] %23
V:3
 x6 | x6 | x6 | x6 | x6 | x6 | x6 | x6 | x6 | x6 | x6 | x6 |[M:5/8] x5 |[M:1/8] x | %14
[M:3/4] z2 A, A2 d | x6 | x6 |[M:5/8] x5 |[M:1/8] x |[M:3/4] x6 | x6 | x6 |[M:5/8] x5 |] %23
V:4
 x6 | x6 | x6 | x6 | x6 | x6 | x6 | x6 | x6 | x3[K:bass] x3 | x6 | x6 |[M:5/8] x5 |[M:1/8] x | %14
[M:3/4] [F,A,]2 F, [F,CF]2 [F,B,F] | x6 | x6 |[M:5/8] x3[K:treble] x2 |[M:1/8] x | %19
[M:3/4] x5[K:bass] x | x6 | x6 |[M:5/8] x5 |] %23

